X:330
T: Miko Russell's
S: Treoir
Z: B.Black
M: 4/4
L: 1/8
R: reel
K: G
F |: DG G2 FGAc | BGGB ABcA | d2 cA BG G2 |\
BdcA GcAF :|
g2 ge fddd | BGGB A2 cA | d2 cA BG G2 |\
BdcA G3 z :|
